X: 64
T: JIG: Trip to Sligo
C: C: Trad.; S: Various
C: Set Leaders: André, Sophie, Anton
Z: Anton Zille ed.; Fernando Durbán Galnares at The Session
N: https://thesession.org/members/26966/sets/96712
R: Jig
M: 6/8
L: 1/8
Q: 3/8=116
K: Emin
|:E2e BGE|D2d AFD|E2e BGE|GFE e2f|
gfe dcB|ABG FED|EFG ABc|BGF E3:||
|:eBe gfe|dAd fed|eBe gfe|f/g/af gfe|
f/g/af gfe|dcB AFD|EFG ABc|BGF E3:||

